src/assets/icons/send_button.svg

<svg width="24" height="26" viewBox="0 0 24 26" fill="none" xmlns="http://www.w3.org/2000/svg">
<path d="M22.9609 0.969727C23.0197 0.979614 23.0795 1.00752 23.1328 1.05469C23.1865 1.1022 23.232 1.16828 23.2588 1.24902C23.2856 1.32984 23.2915 1.41835 23.2754 1.50391V1.50488L18.9111 24.6885C18.8956 24.7676 18.8628 24.838 18.8184 24.8936C18.7737 24.9494 18.7197 24.9877 18.665 25.0098C18.6107 25.0317 18.5539 25.0385 18.499 25.0303C18.4439 25.022 18.3871 24.9979 18.3359 24.957H18.335L11.2383 19.3047L10.6768 18.8574L10.2314 19.4199L6.81641 23.7305C6.76237 23.7987 6.69558 23.8414 6.62891 23.8604C6.56287 23.8791 6.49344 23.876 6.42773 23.8506C6.36141 23.8249 6.29653 23.775 6.24707 23.7002C6.19728 23.6247 6.16709 23.5294 6.16699 23.4287V15.9404L13.5234 9.78027L12.7588 8.58496L3.34375 13.0303L0.881836 11.0488L0.880859 11.0479C0.827146 11.0046 0.780149 10.9429 0.75 10.8662C0.719809 10.7893 0.709053 10.7026 0.719727 10.6172C0.730466 10.5319 0.761578 10.4543 0.806641 10.3926C0.851428 10.3313 0.906858 10.2882 0.963867 10.2637L22.7832 0.991211C22.8411 0.966598 22.9024 0.959898 22.9609 0.969727Z" stroke="white" stroke-width="1.43125"/>
</svg>

<svg xmlns="http://www.w3.org/2000/svg" width="24" height="26" fill="none"><path stroke="#fff" stroke-width="1.431" d="M22.96.97q.092.015.173.085c.053.047.099.113.126.194.027.08.032.17.016.255L18.911 24.69a.5.5 0 0 1-.093.205.4.4 0 0 1-.153.116.32.32 0 0 1-.33-.053l-7.097-5.652-.561-.448-.446.563-3.415 4.31a.37.37 0 0 1-.187.13.3.3 0 0 1-.201-.01.4.4 0 0 1-.18-.15.5.5 0 0 1-.081-.271V15.94l7.356-6.16-.764-1.195-9.415 4.445L.882 11.05l-.001-.001a.44.44 0 0 1-.131-.182.51.51 0 0 1 .057-.473.4.4 0 0 1 .157-.13L22.784.992A.3.3 0 0 1 22.96.97Z"/></svg>
